X: 9
T:Jockey to the fair
N: page 3
N: heptatonic
R: Jig
S:McCuskers
M:6/8
K:G
D|"G"G2A B2c|d2g d2c|BdB GFG|"D"cBc A2^c|\
d^cd "A7"efg|"D"f/2g/2af d2g|fed "A7"AB^c|
"D7"d3-d2:|f/2g/2|"D"afd afd|"D7"c2c "G"B2c|\
dgd dgd|"D7"c2c "G"B2d|"C"e2f gfe|"D7"d2c "G"B2d|
"C"edc "D7"BcA|"G"B2G "C"E2F|"G"GAG GBd|"C"e2"D"f"G"g2e|\
"G"dBG A2B|"C"E2"D"F "G"G2A|Bgd "D7"B2A|"G"G3-G2:|
